svgs/thin/mattress-pillow.svg

<svg xmlns="http://www.w3.org/2000/svg" viewBox="0 0 640 512"><!--! Font Awesome Pro 6.6.0 by @fontawesome - https://fontawesome.com License - https://fontawesome.com/license (Commercial License) Copyright 2024 Fonticons, Inc. --><path d="M256 80l0 352L64 432c-26.5 0-48-21.5-48-48l0-256c0-26.5 21.5-48 48-48l192 0zm16 0l304 0c26.5 0 48 21.5 48 48l0 256c0 26.5-21.5 48-48 48l-304 0 0-352zM64 64C28.7 64 0 92.7 0 128L0 384c0 35.3 28.7 64 64 64l512 0c35.3 0 64-28.7 64-64l0-256c0-35.3-28.7-64-64-64L64 64zm112 80c17.7 0 32 14.3 32 32l0 160c0 17.7-14.3 32-32 32l-64 0c-17.7 0-32-14.3-32-32l0-160c0-17.7 14.3-32 32-32l64 0zm-64-16c-26.5 0-48 21.5-48 48l0 160c0 26.5 21.5 48 48 48l64 0c26.5 0 48-21.5 48-48l0-160c0-26.5-21.5-48-48-48l-64 0z"/></svg>

<svg xmlns="http://www.w3.org/2000/svg" viewBox="0 0 640 512"><!--! Font Awesome Pro 6.4.0 by @fontawesome - https://fontawesome.com License - https://fontawesome.com/license (Commercial License) Copyright 2023 Fonticons, Inc. --><path d="M256 80V432H64c-26.5 0-48-21.5-48-48V128c0-26.5 21.5-48 48-48H256zm16 0H576c26.5 0 48 21.5 48 48V384c0 26.5-21.5 48-48 48H272V80zM64 64C28.7 64 0 92.7 0 128V384c0 35.3 28.7 64 64 64H576c35.3 0 64-28.7 64-64V128c0-35.3-28.7-64-64-64H64zm112 80c17.7 0 32 14.3 32 32V336c0 17.7-14.3 32-32 32H112c-17.7 0-32-14.3-32-32V176c0-17.7 14.3-32 32-32h64zm-64-16c-26.5 0-48 21.5-48 48V336c0 26.5 21.5 48 48 48h64c26.5 0 48-21.5 48-48V176c0-26.5-21.5-48-48-48H112z"/></svg>
